X:1
T: The Duchess of Campbellville
C:
R:Strathspey
Q: 128
K:D
M:4/4
L:1/16
|:A4|d4 ((3d2e2f2) A4 Ad3|F4 FA3 B3A G3F|G4 ((3G2A2B2) E4 EG3|C4 CE3 ((3E2F2G2) ((3A2B2c2)|
d4 ((3d2e2f2) A4 Ad3|F4 FA3 B3A G3F|E3F G3A B3E GB3|c3A ce3 d4A4|
d3e f3d e3c Ac3|B3c d3B A3D FA3|G3A B3G FA3 DF3|((3E2^G2B2) ((3c2d2B2) ((3A2c2e2) ((3g2f2e2)|
d3e f3d e3c Ac3|B3c d3B A3D FA3|G3A B3G FA3 DF3|E3G CE3 D4:|
